apps/illustrator-cc/icon.svg

<svg role="img" focusable="false" aria-hidden="true" xmlns="http://www.w3.org/2000/svg" viewBox="0 0 14 14"><path d="M 1,1 1,13 13,13 13,1 1,1 Z m 6.32925,9.0415 -0.5095,-1.595 -1.787,0 -0.4845,1.595 -1.06,0 1.8035,-5.62825 1.311,0 1.82875,5.62825 -1.10225,0 z m 2.673,0 -1.03575,0 0,-4.06675 1.03575,0 0,4.06675 z M 9.476,5.3905 c -0.3425,0 -0.56775,-0.24225 -0.56775,-0.55125 0,-0.3175 0.234,-0.5595 0.57625,-0.5595 0.35075,0 0.56775,0.242 0.57625,0.5595 C 10.0605,5.14825 9.83525,5.3905 9.476,5.3905 Z m -3.558,-0.15875 -0.01675,0 C 5.81775,5.5575 5.73425,5.95 5.634,6.284 L 5.2,7.67 6.6445,7.67 6.202,6.284 C 6.0935,5.9415 6.0015,5.55725 5.918,5.23175 Z" fill="#E08B29"/></svg>

<svg xmlns="http://www.w3.org/2000/svg" aria-hidden="true" viewBox="0 0 14 14">
  <path fill="#E08B29" d="M1 1v12h12V1H1zm6.3293 9.0415l-.5095-1.595h-1.787l-.4845 1.595h-1.06l1.8035-5.6283h1.311l1.8287 5.6283H7.3293zm2.673 0H8.9665V5.9748h1.0357v4.0667zm-.5263-4.651c-.3425 0-.5677-.2422-.5677-.5513 0-.3175.234-.5595.5762-.5595.3508 0 .5677.242.5763.5595-.0003.309-.2256.5513-.5848.5513zm-3.558-.1588h-.0167c-.0835.3258-.167.7183-.2673 1.0523L5.2 7.67h1.4445L6.202 6.284c-.1085-.3425-.2005-.7268-.284-1.0522z"/>
</svg>
